X: 7443
T: Club Galore
R: reel
M: 4/4
K: Amajor
B4|:"F#m" cF ~F2 BAF"Bm7"c|{/c} BAFE FFFE|"Dmaj7" ceff ecA"E9"(B|c)e (c/B/A) BA{/B} c2-|"F#m" cF ~F2 BAF"Bm7"c|
{/c} BAFE FFFE|1 "Dmaj7" ce{/g}fe c2 e"E9"c|BA ~A2 ~B2 fe:|2 "Dmaj7" ce{/g}fe c2 z2|"E9" BA ~A2 BABc|[M:2/4] efaf||
|:[M:4/4]"A" a3 a baaf|"E/A" b4- baa[fa]|aaba baba|"G/A" b!>!c' z !>!c' z e fe|
"D"{/B} c2 ec BA ~A2|BABc z e fe|"E" (Bc)ec BA ~A2|1 BABc efaf:|2 [M:2/4]"Fdim7" ~B2 fe||

